X:397
T:Korobushka
C:Russian
L:1/8
M:4/4
S:Colin Hume's website,  colinhume.com  - chords can also be printed below the stave.
Q:1/4=140
K:C
V:1
%%MIDI program 21     Accordion
%%MIDI chordprog 25   Acoustic Guitar (steel)
%%MIDI gchord fzczIzczfzczIzcz
%%MIDI bassprog 32    Acoustic Bass
"^Introduction" "E7"BB2c d2e2 | "Am"c2A2 A4 || "E"EE2^G B2GE | "Am"AA2B c2BA | "E"BB2c d2e2 | "Am"c2B2A4 ||
V:2
%%MIDI program 74     Recorder
Z2 || B^GEG BdcB | ABcA ecBA | B^GEG BdcB | c2B2 A4 ||
V:1
|: "Dm"dd2f a2gf | "Am"ee2c e2dc | "E7"BB2c d2e2 |1 "Am"c2A2 A4 :|2 "Am"c2A2 A4 |]
V:2
|: fdAd fagf | ecAc eedc | B^GEG BdcB |1 ABcA ecBA :|2 c2A2 A2A2 |]

